X: 1644
T: the Fiddler's Frolic   #2
%S: s:2 b:11(5+6)
B: O'Neill's 1850 #1644
O: J.O'Neill
M: C|
L: 1/8
K: G
D>B, \
| G,>B,A,>C B,>DC>E | D>GF>A G>BA>c | B>AG>E D>B,G,>B, |\
[1,3 A,>G,A,>B, A,2 D>B, :|[2,4 A,>G,A,>B, G,2 :|
|: d'>c' \
| (3bc'b (3aba g>ag>e | d>Bg>e d>BG>B |\
[1,3 cbcb BaBa | A>GA>B A2 d'>c' :|\
[2,4 (3cag (3fed c>AF>A | G2 G,2 G,2 :|
